X:140
L:1/8
M:6/8
K:Gmin
 G2 A B2 c | d>cd f3 | c2 d f2 d | c>AG F3 | G2 A B2 c | ded b2 a | gfe d=e^f | g3- g2 || g | 
 g2 a b2 g | f2 d f2 d | BcB f2 d | cAc F2 G/F/ | G2 A B2 c | ded b2 a | gfe d=e^f | g3- g2 ||

